packages/core/src/svgs/tokens/mono/GLC.svg

<svg width="24" height="24" viewBox="0 0 24 24" fill="none" xmlns="http://www.w3.org/2000/svg">
<path d="M5.02858 16.303C6.56745 19.183 9.60344 21.143 13.0972 21.143C17.4235 21.143 21.048 18.1383 21.9972 14.1018L22 11.9955C22 11.6926 21.7377 11.431 21.4349 11.431H15.1383C14.8355 11.431 14.5737 11.6932 14.5737 11.9955V13.7286C14.5737 14.0326 14.8252 14.2806 15.128 14.2858H18.6309C18.1829 15.3903 17.4023 16.5966 16.3977 17.2383C15.4711 17.8298 14.3943 18.1431 13.2949 18.1412V18.1486C12.279 18.15 11.2782 17.903 10.3798 17.4288C9.48147 16.9547 8.71269 16.268 8.14059 15.4286H9.14288C9.3702 15.4286 9.58823 15.3383 9.74896 15.1776C9.90971 15.0168 10 14.7988 10 14.5715C10 14.3442 9.90971 14.1262 9.74896 13.9654C9.58823 13.8047 9.3702 13.7143 9.14288 13.7143H7.32516C7.24401 13.44 7.18116 13.1578 7.1383 12.8686C7.07432 12.4482 7.05574 12.0222 7.08288 11.5978C7.09773 11.3463 7.12744 11.0995 7.17144 10.8572H9.14288C9.3702 10.8572 9.58823 10.7668 9.74896 10.6062C9.90971 10.4454 10 10.2274 10 10C10 9.7727 9.90971 9.5547 9.74896 9.3939C9.58823 9.2332 9.3702 9.1429 9.14288 9.1429H7.75488L7.75773 9.13719H7.74745C8.48755 7.69644 9.76186 6.60234 11.298 6.08874C12.8341 5.57513 14.5103 5.68276 15.968 6.38861C16.8103 6.79737 17.5485 7.39239 18.1269 8.12861C18.172 8.19021 18.2304 8.24099 18.2976 8.27724C18.3648 8.31349 18.4392 8.33432 18.5156 8.33822C18.5919 8.3421 18.668 8.32895 18.7385 8.29971C18.8091 8.27047 18.8723 8.22588 18.9235 8.16919L20.196 6.81375C20.2888 6.71785 20.3432 6.5913 20.3491 6.458C20.3548 6.3247 20.3116 6.1939 20.2275 6.09032C18.5417 4.07203 15.9337 2.85718 13.0972 2.85718C9.04573 2.85718 5.60973 5.49261 4.40972 9.1429H2.85715C2.62981 9.1429 2.4118 9.2332 2.25105 9.3939C2.09031 9.5547 2 9.7727 2 10C2 10.2274 2.09031 10.4454 2.25105 10.6062C2.4118 10.7668 2.62981 10.8572 2.85715 10.8572H4.032C4.00156 11.1506 3.9825 11.4451 3.97487 11.74C3.95772 12.3612 4.00172 12.983 4.1063 13.596H4.09315L4.11487 13.7143H2.85715C2.62981 13.7143 2.4118 13.8047 2.25105 13.9654C2.09031 14.1262 2 14.3442 2 14.5715C2 14.7988 2.09031 15.0168 2.25105 15.1776C2.4118 15.3383 2.62981 15.4286 2.85715 15.4286H4.6223C4.74287 15.728 4.87887 16.0195 5.02858 16.303Z" fill="white"/>
</svg>

<svg xmlns="http://www.w3.org/2000/svg" width="24" height="24" fill="none" viewBox="0 0 24 24">
    <path fill="#fff" d="M5.029 16.303a9.146 9.146 0 0 0 16.969-2.201L22 11.995a.577.577 0 0 0-.565-.564h-6.297a.577.577 0 0 0-.564.565v1.733c0 .304.251.552.554.557h3.503c-.448 1.104-1.229 2.31-2.233 2.952a5.75 5.75 0 0 1-3.103.903v.008a6.23 6.23 0 0 1-5.154-2.72h1.002a.857.857 0 0 0 0-1.715H7.325a6.2 6.2 0 0 1-.154-2.857h1.972a.858.858 0 0 0 0-1.714H7.755l.003-.006h-.01a6.203 6.203 0 0 1 8.22-2.748 6.2 6.2 0 0 1 2.159 1.74.514.514 0 0 0 .797.04l1.272-1.355a.546.546 0 0 0 .031-.724c-1.685-2.018-4.293-3.233-7.13-3.233A9.15 9.15 0 0 0 4.41 9.143H2.857a.857.857 0 0 0 0 1.714h1.175q-.046.44-.057.883a9.5 9.5 0 0 0 .131 1.856h-.013l.022.118H2.857a.857.857 0 0 0 0 1.715h1.765q.181.448.407.874"/>
</svg>
